Newaita-dark/devices/32/network-cellular.svg

<svg height="32pt" viewBox="0 0 32 32" width="32pt" xmlns="http://www.w3.org/2000/svg" xmlns:xlink="http://www.w3.org/1999/xlink"><linearGradient id="a" gradientTransform="matrix(.059166 0 0 .062506 .77009 13.438784)" gradientUnits="userSpaceOnUse" x1="254" x2="254" y1="233.5" y2="254.66667"><stop offset="0" stop-opacity=".27451"/><stop offset="1" stop-opacity="0"/></linearGradient><linearGradient id="b"><stop offset="0" stop-opacity=".313725"/><stop offset=".222222" stop-opacity=".27451"/><stop offset="1" stop-opacity="0"/></linearGradient><radialGradient id="c" cx="450.90894" cy="189.57936" gradientTransform="matrix(.00000017 -.0781325 -.140638 -.0000001 52.461408 63.595334)" gradientUnits="userSpaceOnUse" r="21.166656" xlink:href="#b"/><radialGradient id="d" cx="450.90894" cy="189.57936" gradientTransform="matrix(-.00000017 .0781325 .140638 .0000001 -20.708377 -7.527479)" gradientUnits="userSpaceOnUse" r="21.166656" xlink:href="#b"/><radialGradient id="e" cx="450.90894" cy="189.57936" gradientTransform="matrix(-.00000017 -.0781325 .140638 -.0000001 -20.708377 63.595334)" gradientUnits="userSpaceOnUse" r="21.166656" xlink:href="#b"/><radialGradient id="f" cx="450.90894" cy="189.57936" gradientTransform="matrix(.00000017 .0781325 -.140638 .0000001 52.461406 -7.527479)" gradientUnits="userSpaceOnUse" r="21.166656" xlink:href="#b"/><linearGradient id="g" gradientUnits="userSpaceOnUse" x1="15.876524" x2="15.876524" y1="28.033934" y2="2.89610412498"><stop offset="0" stop-color="#66bb6a"/><stop offset="1" stop-color="#81c784"/></linearGradient><linearGradient id="h" gradientUnits="userSpaceOnUse" x1="19.8456" x2="19.8456" y1="28.0338647916" y2="2.89610346856"><stop offset="0" stop-color="#424242"/><stop offset="1" stop-color="#616161"/></linearGradient><path d="m5.621094 28.035156h20.507812v1.320313h-20.507812zm0 0" fill="url(#a)"/><path d="m26.128906 28.035156h2.648438v-1.324218h-2.648438zm0 0" fill="url(#c)"/><path d="m5.621094 28.035156h-2.644532v1.320313h2.644532zm0 0" fill="url(#d)"/><path d="m5.621094 28.035156h-2.644532v-1.324218h2.644532zm0 0" fill="url(#e)"/><path d="m26.128906 28.035156h2.648438v1.320313h-2.648438zm0 0" fill="url(#f)"/><path d="m4.628906 2.894531h22.492188c.730468 0 1.324218.59375 1.324218 1.324219v22.492188c0 .730468-.59375 1.324218-1.324218 1.324218h-22.492188c-.730468 0-1.320312-.59375-1.320312-1.324218v-22.492188c0-.730469.589844-1.324219 1.320312-1.324219zm0 0" fill="url(#g)"/><path d="m4.628906 2.894531c-.730468 0-1.320312.589844-1.320312 1.324219v.25c0-.734375.589844-1.324219 1.320312-1.324219h22.492188c.734375 0 1.324218.589844 1.324218 1.324219v-.25c0-.734375-.589843-1.324219-1.324218-1.324219zm0 0" fill="#fff" fill-opacity=".392157"/><path d="m74.055428-168.691922h359.840637c11.686384 0 21.185477 9.499093 21.185477 21.185477v359.840637c0 11.686384-9.499093 21.185477-21.185477 21.185477h-359.840637c-11.686384 0-21.122983-9.499093-21.122983-21.185477v-359.840637c0-11.686384 9.436599-21.185477 21.122983-21.185477zm0 0" fill="none" stroke="#212121" stroke-linecap="round" stroke-linejoin="round" stroke-width="3" transform="matrix(.062506 0 0 .062506 0 13.438783)"/><path d="m10.28125 5.253906c-2.265625 2.269532-3.667969 5.410156-3.667969 8.886719 0 3.480469 1.402344 6.621094 3.667969 8.890625l1.40625-1.402344c-1.910156-1.914062-3.085938-4.558594-3.085938-7.488281 0-2.925781 1.175782-5.570313 3.085938-7.484375zm14.996094 2.808594-1.40625 1.402344c1.191406 1.195312 1.929687 2.847656 1.929687 4.675781 0 1.832031-.738281 3.480469-1.929687 4.675781l1.40625 1.40625c1.550781-1.554687 2.507812-3.703125 2.507812-6.082031s-.957031-4.523437-2.507812-6.078125zm-12.183594 0c-1.554688 1.554688-2.507812 3.699219-2.507812 6.078125s.953124 4.527344 2.507812 6.082031l1.402344-1.40625c-1.191406-1.195312-1.925782-2.84375-1.925782-4.675781 0-1.828125.734376-3.480469 1.925782-4.675781zm6.089844 2.109375c-2.199219 0-3.96875 1.769531-3.96875 3.96875 0 1.734375 1.101562 3.203125 2.644531 3.746094v10.148437h2.648437v-10.148437c1.542969-.542969 2.644532-2.011719 2.644532-3.746094 0-2.199219-1.769532-3.96875-3.96875-3.96875zm0 0" fill="url(#h)"/><g fill-opacity=".235294"><path d="m10.28125 5.253906c-2.265625 2.269532-3.667969 5.410156-3.667969 8.886719 0 .078125.003907.152344.003907.230469.058593-3.386719 1.445312-6.441406 3.664062-8.660156l1.179688 1.179687c.074218-.078125.148437-.15625.226562-.234375zm14.996094 2.808594-1.40625 1.402344c.078125.078125.152344.15625.222656.234375l1.183594-1.179688c1.5 1.503907 2.445312 3.5625 2.503906 5.851563 0-.078125.003906-.152344.003906-.230469 0-2.378906-.957031-4.523437-2.507812-6.078125zm-12.183594 0c-1.554688 1.554688-2.507812 3.699219-2.507812 6.078125v.230469c.0625-2.289063 1.003906-4.347656 2.507812-5.851563l1.179688 1.179688c.074218-.078125.148437-.15625.222656-.234375zm6.089844 2.109375c-2.199219 0-3.96875 1.769531-3.96875 3.96875 0 .078125.003906.15625.007812.230469.117188-2.089844 1.839844-3.742188 3.960938-3.742188s3.847656 1.652344 3.964844 3.742188c.003906-.074219.003906-.152344.003906-.230469 0-2.199219-1.769532-3.96875-3.96875-3.96875zm-6.609375 4.199219c-.003907.074218-.003907.152344-.003907.226562 0 1.714844.644532 3.269532 1.703126 4.441406l.222656-.222656c-1.140625-1.144531-1.863282-2.707031-1.921875-4.445312zm13.222656 0c-.058594 1.738281-.78125 3.300781-1.925781 4.445312l.222656.222656c1.0625-1.171874 1.707031-2.726562 1.707031-4.441406 0-.074218-.003906-.152344-.003906-.226562zm-17.195313 0v.226562c0 2.8125 1.085938 5.363282 2.859376 7.253906l.226562-.222656c-1.859375-1.863281-3.027344-4.421875-3.085938-7.257812zm0 0" fill="#fff"/><path d="m11.402344 6.929688c-1.742188 1.882812-2.800782 4.40625-2.800782 7.1875 0 .097656 0 .195312.003907.289062.074219-2.8125 1.234375-5.34375 3.082031-7.195312zm12.75 2.8125-.28125.277343c1.128906 1.132813 1.847656 2.675781 1.921875 4.386719.003906-.09375.007812-.191406.007812-.289062 0-1.679688-.621093-3.210938-1.648437-4.375zm-9.9375 0c-1.023438 1.164062-1.644532 2.695312-1.644532 4.375 0 .097656 0 .195312.003907.289062.074219-1.710938.792969-3.253906 1.921875-4.386719zm1.011718 4.664062c-.007812.097656-.011718.195312-.011718.289062 0 1.738282 1.101562 3.203126 2.644531 3.746094v-.578125c-1.457031-.511719-2.519531-1.847656-2.632813-3.457031zm7.917969 0c-.117187 1.609375-1.179687 2.945312-2.636719 3.457031v.578125c1.542969-.542968 2.644532-2.007812 2.644532-3.746094 0-.09375-.003906-.191406-.007813-.289062zm-16.527343 0c0 .097656-.003907.195312-.003907.289062 0 3.480469 1.402344 6.621094 3.667969 8.890626l1.40625-1.402344c-.097656-.097656-.191406-.195313-.285156-.296875l-1.121094 1.121093c-2.203125-2.207031-3.585938-5.238281-3.664062-8.601562zm3.972656 0c-.003906.097656-.003906.195312-.003906.289062 0 2.382813.953124 4.527344 2.507812 6.082032l1.402344-1.402344c-.097656-.097656-.1875-.199219-.28125-.300781l-1.121094 1.125c-1.488281-1.492188-2.429688-3.527344-2.503906-5.792969zm17.1875 0c-.074219 2.265625-1.011719 4.300781-2.5 5.792969l-1.125-1.125c-.089844.101562-.183594.203125-.28125.300781l1.40625 1.402344c1.550781-1.554688 2.507812-3.699219 2.507812-6.082032 0-.09375-.003906-.191406-.007812-.289062zm-9.917969 13.605469v.023437h2.648437v-.023437zm0 0"/><path d="m4.628906 28.035156c-.730468 0-1.320312-.589844-1.320312-1.324218v-.332032c0 .734375.589844 1.324219 1.320312 1.324219h22.492188c.734375 0 1.324218-.589844 1.324218-1.324219v.332032c0 .734374-.589843 1.324218-1.324218 1.324218zm0 0"/></g><path d="m621.672924 317.686202c-136.994793 137.230991-221.789846 327.134119-221.789846 537.350267 0 210.452347 84.795053 400.355474 221.789846 537.586465l85.031252-84.795053c-115.500783-115.736981-186.596357-275.642972-186.596357-452.791412 0-176.912242 71.095574-336.818233 186.596357-452.555214zm906.763814 169.826304-85.031251 84.795053c72.040365 72.276564 116.681772 172.188284 116.681772 282.72891 0 110.776824-44.641407 210.452347-116.681772 282.72891l85.031251 85.031251c93.770574-94.006772 151.639064-223.915628 151.639064-367.760161s-57.86849-273.517191-151.639064-367.523963zm-736.701311 0c-94.006772 94.006772-151.639065 223.67943-151.639065 367.523963s57.632293 273.753389 151.639065 367.760161l84.795053-85.031251c-72.040366-72.276563-116.445575-171.952086-116.445575-282.72891 0-110.540626 44.405209-210.452346 116.445575-282.72891zm368.232556 127.546877c-132.979428 0-239.977086 106.997657-239.977086 239.977086 0 104.871876 66.607813 193.682294 159.905992 226.513805v613.642195h160.142189v-613.642195c93.298178-32.831511 159.905992-121.641929 159.905992-226.513805 0-132.979429-106.997658-239.977086-239.977087-239.977086zm0 0" fill="none" stroke="#212121" stroke-linecap="round" stroke-linejoin="round" stroke-width="11.338583" transform="scale(.016538)"/></svg>

<?xml version="1.0" encoding="UTF-8"?>
<svg xmlns="http://www.w3.org/2000/svg" xmlns:xlink="http://www.w3.org/1999/xlink" width="32pt" height="32pt" viewBox="0 0 32 32" version="1.1">
<defs>
<linearGradient id="linear0" gradientUnits="userSpaceOnUse" x1="254" y1="233.5" x2="254" y2="254.66667" gradientTransform="matrix(0.059166,0,0,0.062506,0.77009,13.438784)">
<stop offset="0" style="stop-color:rgb(0%,0%,0%);stop-opacity:0.27451;"/>
<stop offset="1" style="stop-color:rgb(0%,0%,0%);stop-opacity:0;"/>
</linearGradient>
<radialGradient id="radial0" gradientUnits="userSpaceOnUse" cx="450.90894" cy="189.57936" fx="450.90894" fy="189.57936" r="21.166656" gradientTransform="matrix(0.00000017417,-0.0781325,-0.140638,-0.000000101539,52.461408,63.595334)">
<stop offset="0" style="stop-color:rgb(0%,0%,0%);stop-opacity:0.313725;"/>
<stop offset="0.222222" style="stop-color:rgb(0%,0%,0%);stop-opacity:0.27451;"/>
<stop offset="1" style="stop-color:rgb(0%,0%,0%);stop-opacity:0;"/>
</radialGradient>
<radialGradient id="radial1" gradientUnits="userSpaceOnUse" cx="450.90894" cy="189.57936" fx="450.90894" fy="189.57936" r="21.166656" gradientTransform="matrix(-0.00000017417,0.0781325,0.140638,0.000000101539,-20.708377,-7.527479)">
<stop offset="0" style="stop-color:rgb(0%,0%,0%);stop-opacity:0.313725;"/>
<stop offset="0.222222" style="stop-color:rgb(0%,0%,0%);stop-opacity:0.27451;"/>
<stop offset="1" style="stop-color:rgb(0%,0%,0%);stop-opacity:0;"/>
</radialGradient>
<radialGradient id="radial2" gradientUnits="userSpaceOnUse" cx="450.90894" cy="189.57936" fx="450.90894" fy="189.57936" r="21.166656" gradientTransform="matrix(-0.00000017417,-0.0781325,0.140638,-0.000000101539,-20.708377,63.595334)">
<stop offset="0" style="stop-color:rgb(0%,0%,0%);stop-opacity:0.313725;"/>
<stop offset="0.222222" style="stop-color:rgb(0%,0%,0%);stop-opacity:0.27451;"/>
<stop offset="1" style="stop-color:rgb(0%,0%,0%);stop-opacity:0;"/>
</radialGradient>
<radialGradient id="radial3" gradientUnits="userSpaceOnUse" cx="450.90894" cy="189.57936" fx="450.90894" fy="189.57936" r="21.166656" gradientTransform="matrix(0.00000017417,0.0781325,-0.140638,0.000000101539,52.461406,-7.527479)">
<stop offset="0" style="stop-color:rgb(0%,0%,0%);stop-opacity:0.313725;"/>
<stop offset="0.222222" style="stop-color:rgb(0%,0%,0%);stop-opacity:0.27451;"/>
<stop offset="1" style="stop-color:rgb(0%,0%,0%);stop-opacity:0;"/>
</radialGradient>
<linearGradient id="linear1" gradientUnits="userSpaceOnUse" x1="254" y1="233.5" x2="254" y2="-168.66667" gradientTransform="matrix(0.062506,0,0,0.062506,0,13.438783)">
<stop offset="0" style="stop-color:rgb(40%,73.333333%,41.568627%);stop-opacity:1;"/>
<stop offset="1" style="stop-color:rgb(50.588235%,78.039216%,51.764706%);stop-opacity:1;"/>
</linearGradient>
<linearGradient id="linear2" gradientUnits="userSpaceOnUse" x1="1200" y1="1695.1182" x2="1200" y2="175.11812" gradientTransform="matrix(0.016538,0,0,0.016538,0,0)">
<stop offset="0" style="stop-color:rgb(25.882353%,25.882353%,25.882353%);stop-opacity:1;"/>
<stop offset="1" style="stop-color:rgb(38.039216%,38.039216%,38.039216%);stop-opacity:1;"/>
</linearGradient>
</defs>
<g id="surface1">
<path style=" stroke:none;fill-rule:nonzero;fill:url(#linear0);" d="M 5.621094 28.035156 L 26.128906 28.035156 L 26.128906 29.355469 L 5.621094 29.355469 Z M 5.621094 28.035156 "/>
<path style=" stroke:none;fill-rule:nonzero;fill:url(#radial0);" d="M 26.128906 28.035156 L 28.777344 28.035156 L 28.777344 26.710938 L 26.128906 26.710938 Z M 26.128906 28.035156 "/>
<path style=" stroke:none;fill-rule:nonzero;fill:url(#radial1);" d="M 5.621094 28.035156 L 2.976562 28.035156 L 2.976562 29.355469 L 5.621094 29.355469 Z M 5.621094 28.035156 "/>
<path style=" stroke:none;fill-rule:nonzero;fill:url(#radial2);" d="M 5.621094 28.035156 L 2.976562 28.035156 L 2.976562 26.710938 L 5.621094 26.710938 Z M 5.621094 28.035156 "/>
<path style=" stroke:none;fill-rule:nonzero;fill:url(#radial3);" d="M 26.128906 28.035156 L 28.777344 28.035156 L 28.777344 29.355469 L 26.128906 29.355469 Z M 26.128906 28.035156 "/>
<path style=" stroke:none;fill-rule:nonzero;fill:url(#linear1);" d="M 4.628906 2.894531 L 27.121094 2.894531 C 27.851562 2.894531 28.445312 3.488281 28.445312 4.21875 L 28.445312 26.710938 C 28.445312 27.441406 27.851562 28.035156 27.121094 28.035156 L 4.628906 28.035156 C 3.898438 28.035156 3.308594 27.441406 3.308594 26.710938 L 3.308594 4.21875 C 3.308594 3.488281 3.898438 2.894531 4.628906 2.894531 Z M 4.628906 2.894531 "/>
<path style=" stroke:none;fill-rule:nonzero;fill:rgb(100%,100%,100%);fill-opacity:0.392157;" d="M 4.628906 2.894531 C 3.898438 2.894531 3.308594 3.484375 3.308594 4.21875 L 3.308594 4.46875 C 3.308594 3.734375 3.898438 3.144531 4.628906 3.144531 L 27.121094 3.144531 C 27.855469 3.144531 28.445312 3.734375 28.445312 4.46875 L 28.445312 4.21875 C 28.445312 3.484375 27.855469 2.894531 27.121094 2.894531 Z M 4.628906 2.894531 "/>
<path style="fill:none;stroke-width:3;stroke-linecap:round;stroke-linejoin:round;stroke:rgb(12.941176%,12.941176%,12.941176%);stroke-opacity:1;stroke-miterlimit:4;" d="M 74.055428 -168.691922 L 433.896065 -168.691922 C 445.582449 -168.691922 455.081542 -159.192829 455.081542 -147.506445 L 455.081542 212.334192 C 455.081542 224.020576 445.582449 233.519669 433.896065 233.519669 L 74.055428 233.519669 C 62.369044 233.519669 52.932445 224.020576 52.932445 212.334192 L 52.932445 -147.506445 C 52.932445 -159.192829 62.369044 -168.691922 74.055428 -168.691922 Z M 74.055428 -168.691922 " transform="matrix(0.062506,0,0,0.062506,0,13.438783)"/>
<path style=" stroke:none;fill-rule:nonzero;fill:url(#linear2);" d="M 10.28125 5.253906 C 8.015625 7.523438 6.613281 10.664062 6.613281 14.140625 C 6.613281 17.621094 8.015625 20.761719 10.28125 23.03125 L 11.6875 21.628906 C 9.777344 19.714844 8.601562 17.070312 8.601562 14.140625 C 8.601562 11.214844 9.777344 8.570312 11.6875 6.65625 Z M 25.277344 8.0625 L 23.871094 9.464844 C 25.0625 10.660156 25.800781 12.3125 25.800781 14.140625 C 25.800781 15.972656 25.0625 17.621094 23.871094 18.816406 L 25.277344 20.222656 C 26.828125 18.667969 27.785156 16.519531 27.785156 14.140625 C 27.785156 11.761719 26.828125 9.617188 25.277344 8.0625 Z M 13.09375 8.0625 C 11.539062 9.617188 10.585938 11.761719 10.585938 14.140625 C 10.585938 16.519531 11.539062 18.667969 13.09375 20.222656 L 14.496094 18.816406 C 13.304688 17.621094 12.570312 15.972656 12.570312 14.140625 C 12.570312 12.3125 13.304688 10.660156 14.496094 9.464844 Z M 19.183594 10.171875 C 16.984375 10.171875 15.214844 11.941406 15.214844 14.140625 C 15.214844 15.875 16.316406 17.34375 17.859375 17.886719 L 17.859375 28.035156 L 20.507812 28.035156 L 20.507812 17.886719 C 22.050781 17.34375 23.152344 15.875 23.152344 14.140625 C 23.152344 11.941406 21.382812 10.171875 19.183594 10.171875 Z M 19.183594 10.171875 "/>
<path style=" stroke:none;fill-rule:nonzero;fill:rgb(100%,100%,100%);fill-opacity:0.235294;" d="M 10.28125 5.253906 C 8.015625 7.523438 6.613281 10.664062 6.613281 14.140625 C 6.613281 14.21875 6.617188 14.292969 6.617188 14.371094 C 6.675781 10.984375 8.0625 7.929688 10.28125 5.710938 L 11.460938 6.890625 C 11.535156 6.8125 11.609375 6.734375 11.6875 6.65625 Z M 25.277344 8.0625 L 23.871094 9.464844 C 23.949219 9.542969 24.023438 9.621094 24.09375 9.699219 L 25.277344 8.519531 C 26.777344 10.023438 27.722656 12.082031 27.78125 14.371094 C 27.78125 14.292969 27.785156 14.21875 27.785156 14.140625 C 27.785156 11.761719 26.828125 9.617188 25.277344 8.0625 Z M 13.09375 8.0625 C 11.539062 9.617188 10.585938 11.761719 10.585938 14.140625 C 10.585938 14.21875 10.585938 14.292969 10.585938 14.371094 C 10.648438 12.082031 11.589844 10.023438 13.09375 8.519531 L 14.273438 9.699219 C 14.347656 9.621094 14.421875 9.542969 14.496094 9.464844 Z M 19.183594 10.171875 C 16.984375 10.171875 15.214844 11.941406 15.214844 14.140625 C 15.214844 14.21875 15.21875 14.296875 15.222656 14.371094 C 15.339844 12.28125 17.0625 10.628906 19.183594 10.628906 C 21.304688 10.628906 23.03125 12.28125 23.148438 14.371094 C 23.152344 14.296875 23.152344 14.21875 23.152344 14.140625 C 23.152344 11.941406 21.382812 10.171875 19.183594 10.171875 Z M 12.574219 14.371094 C 12.570312 14.445312 12.570312 14.523438 12.570312 14.597656 C 12.570312 16.3125 13.214844 17.867188 14.273438 19.039062 L 14.496094 18.816406 C 13.355469 17.671875 12.632812 16.109375 12.574219 14.371094 Z M 25.796875 14.371094 C 25.738281 16.109375 25.015625 17.671875 23.871094 18.816406 L 24.09375 19.039062 C 25.15625 17.867188 25.800781 16.3125 25.800781 14.597656 C 25.800781 14.523438 25.796875 14.445312 25.796875 14.371094 Z M 8.601562 14.371094 C 8.601562 14.445312 8.601562 14.523438 8.601562 14.597656 C 8.601562 17.410156 9.6875 19.960938 11.460938 21.851562 L 11.6875 21.628906 C 9.828125 19.765625 8.660156 17.207031 8.601562 14.371094 Z M 8.601562 14.371094 "/>
<path style=" stroke:none;fill-rule:nonzero;fill:rgb(0%,0%,0%);fill-opacity:0.235294;" d="M 11.402344 6.929688 C 9.660156 8.8125 8.601562 11.335938 8.601562 14.117188 C 8.601562 14.214844 8.601562 14.3125 8.605469 14.40625 C 8.679688 11.59375 9.839844 9.0625 11.6875 7.210938 Z M 24.152344 9.742188 L 23.871094 10.019531 C 25 11.152344 25.71875 12.695312 25.792969 14.40625 C 25.796875 14.3125 25.800781 14.214844 25.800781 14.117188 C 25.800781 12.4375 25.179688 10.90625 24.152344 9.742188 Z M 14.214844 9.742188 C 13.191406 10.90625 12.570312 12.4375 12.570312 14.117188 C 12.570312 14.214844 12.570312 14.3125 12.574219 14.40625 C 12.648438 12.695312 13.367188 11.152344 14.496094 10.019531 Z M 15.226562 14.40625 C 15.21875 14.503906 15.214844 14.601562 15.214844 14.695312 C 15.214844 16.433594 16.316406 17.898438 17.859375 18.441406 L 17.859375 17.863281 C 16.402344 17.351562 15.339844 16.015625 15.226562 14.40625 Z M 23.144531 14.40625 C 23.027344 16.015625 21.964844 17.351562 20.507812 17.863281 L 20.507812 18.441406 C 22.050781 17.898438 23.152344 16.433594 23.152344 14.695312 C 23.152344 14.601562 23.148438 14.503906 23.144531 14.40625 Z M 6.617188 14.40625 C 6.617188 14.503906 6.613281 14.601562 6.613281 14.695312 C 6.613281 18.175781 8.015625 21.316406 10.28125 23.585938 L 11.6875 22.183594 C 11.589844 22.085938 11.496094 21.988281 11.402344 21.886719 L 10.28125 23.007812 C 8.078125 20.800781 6.695312 17.769531 6.617188 14.40625 Z M 10.589844 14.40625 C 10.585938 14.503906 10.585938 14.601562 10.585938 14.695312 C 10.585938 17.078125 11.539062 19.222656 13.09375 20.777344 L 14.496094 19.375 C 14.398438 19.277344 14.308594 19.175781 14.214844 19.074219 L 13.09375 20.199219 C 11.605469 18.707031 10.664062 16.671875 10.589844 14.40625 Z M 27.777344 14.40625 C 27.703125 16.671875 26.765625 18.707031 25.277344 20.199219 L 24.152344 19.074219 C 24.0625 19.175781 23.96875 19.277344 23.871094 19.375 L 25.277344 20.777344 C 26.828125 19.222656 27.785156 17.078125 27.785156 14.695312 C 27.785156 14.601562 27.78125 14.503906 27.777344 14.40625 Z M 17.859375 28.011719 L 17.859375 28.035156 L 20.507812 28.035156 L 20.507812 28.011719 Z M 17.859375 28.011719 "/>
<path style=" stroke:none;fill-rule:nonzero;fill:rgb(0%,0%,0%);fill-opacity:0.235294;" d="M 4.628906 28.035156 C 3.898438 28.035156 3.308594 27.445312 3.308594 26.710938 L 3.308594 26.378906 C 3.308594 27.113281 3.898438 27.703125 4.628906 27.703125 L 27.121094 27.703125 C 27.855469 27.703125 28.445312 27.113281 28.445312 26.378906 L 28.445312 26.710938 C 28.445312 27.445312 27.855469 28.035156 27.121094 28.035156 Z M 4.628906 28.035156 "/>
<path style="fill:none;stroke-width:11.338583;stroke-linecap:round;stroke-linejoin:round;stroke:rgb(12.941176%,12.941176%,12.941176%);stroke-opacity:1;stroke-miterlimit:4;" d="M 621.672924 317.686202 C 484.678131 454.917193 399.883078 644.820321 399.883078 855.036469 C 399.883078 1065.488816 484.678131 1255.391943 621.672924 1392.622934 L 706.704176 1307.827881 C 591.203393 1192.0909 520.107819 1032.184909 520.107819 855.036469 C 520.107819 678.124227 591.203393 518.218236 706.704176 402.481255 Z M 1528.436738 487.512506 L 1443.405487 572.307559 C 1515.445852 644.584123 1560.087259 744.495843 1560.087259 855.036469 C 1560.087259 965.813293 1515.445852 1065.488816 1443.405487 1137.765379 L 1528.436738 1222.79663 C 1622.207312 1128.789858 1680.075802 998.881002 1680.075802 855.036469 C 1680.075802 711.191936 1622.207312 581.519278 1528.436738 487.512506 Z M 791.735427 487.512506 C 697.728655 581.519278 640.096362 711.191936 640.096362 855.036469 C 640.096362 998.881002 697.728655 1128.789858 791.735427 1222.79663 L 876.53048 1137.765379 C 804.490114 1065.488816 760.084905 965.813293 760.084905 855.036469 C 760.084905 744.495843 804.490114 644.584123 876.53048 572.307559 Z M 1159.967983 615.059383 C 1026.988555 615.059383 919.990897 722.05704 919.990897 855.036469 C 919.990897 959.908345 986.59871 1048.718763 1079.896889 1081.550274 L 1079.896889 1695.192469 L 1240.039078 1695.192469 L 1240.039078 1081.550274 C 1333.337256 1048.718763 1399.94507 959.908345 1399.94507 855.036469 C 1399.94507 722.05704 1292.947412 615.059383 1159.967983 615.059383 Z M 1159.967983 615.059383 " transform="matrix(0.016538,0,0,0.016538,0,0)"/>
</g>
</svg>
